components/Common/Svg/svgs/titledCoreData.svg

<svg width="92" height="138" viewBox="0 0 92 138" fill="none" xmlns="http://www.w3.org/2000/svg">
<path d="M0.774 121.718C0.774 120.494 1.05 119.396 1.602 118.424C2.154 117.44 2.904 116.672 3.852 116.12C4.812 115.568 5.874 115.292 7.038 115.292C8.406 115.292 9.6 115.622 10.62 116.282C11.64 116.942 12.384 117.878 12.852 119.09H10.89C10.542 118.334 10.038 117.752 9.378 117.344C8.73 116.936 7.95 116.732 7.038 116.732C6.162 116.732 5.376 116.936 4.68 117.344C3.984 117.752 3.438 118.334 3.042 119.09C2.646 119.834 2.448 120.71 2.448 121.718C2.448 122.714 2.646 123.59 3.042 124.346C3.438 125.09 3.984 125.666 4.68 126.074C5.376 126.482 6.162 126.686 7.038 126.686C7.95 126.686 8.73 126.488 9.378 126.092C10.038 125.684 10.542 125.102 10.89 124.346H12.852C12.384 125.546 11.64 126.476 10.62 127.136C9.6 127.784 8.406 128.108 7.038 128.108C5.874 128.108 4.812 127.838 3.852 127.298C2.904 126.746 2.154 125.984 1.602 125.012C1.05 124.04 0.774 122.942 0.774 121.718ZM19.5923 128.162C18.6683 128.162 17.8283 127.952 17.0723 127.532C16.3283 127.112 15.7403 126.518 15.3083 125.75C14.8883 124.97 14.6783 124.07 14.6783 123.05C14.6783 122.042 14.8943 121.154 15.3263 120.386C15.7703 119.606 16.3703 119.012 17.1263 118.604C17.8823 118.184 18.7283 117.974 19.6643 117.974C20.6003 117.974 21.4463 118.184 22.2023 118.604C22.9583 119.012 23.5523 119.6 23.9843 120.368C24.4283 121.136 24.6503 122.03 24.6503 123.05C24.6503 124.07 24.4223 124.97 23.9663 125.75C23.5223 126.518 22.9163 127.112 22.1483 127.532C21.3803 127.952 20.5283 128.162 19.5923 128.162ZM19.5923 126.722C20.1803 126.722 20.7323 126.584 21.2483 126.308C21.7643 126.032 22.1783 125.618 22.4903 125.066C22.8143 124.514 22.9763 123.842 22.9763 123.05C22.9763 122.258 22.8203 121.586 22.5083 121.034C22.1963 120.482 21.7883 120.074 21.2843 119.81C20.7803 119.534 20.2343 119.396 19.6463 119.396C19.0463 119.396 18.4943 119.534 17.9903 119.81C17.4983 120.074 17.1023 120.482 16.8023 121.034C16.5023 121.586 16.3523 122.258 16.3523 123.05C16.3523 123.854 16.4963 124.532 16.7843 125.084C17.0843 125.636 17.4803 126.05 17.9723 126.326C18.4643 126.59 19.0043 126.722 19.5923 126.722ZM28.442 119.738C28.73 119.174 29.138 118.736 29.666 118.424C30.206 118.112 30.86 117.956 31.628 117.956V119.648H31.196C29.36 119.648 28.442 120.644 28.442 122.636V128H26.804V118.136H28.442V119.738ZM42.5188 122.69C42.5188 123.002 42.5008 123.332 42.4648 123.68H34.5808C34.6408 124.652 34.9708 125.414 35.5708 125.966C36.1828 126.506 36.9208 126.776 37.7848 126.776C38.4928 126.776 39.0808 126.614 39.5488 126.29C40.0288 125.954 40.3648 125.51 40.5568 124.958H42.3208C42.0568 125.906 41.5288 126.68 40.7368 127.28C39.9448 127.868 38.9608 128.162 37.7848 128.162C36.8488 128.162 36.0088 127.952 35.2648 127.532C34.5328 127.112 33.9568 126.518 33.5368 125.75C33.1168 124.97 32.9068 124.07 32.9068 123.05C32.9068 122.03 33.1108 121.136 33.5188 120.368C33.9268 119.6 34.4968 119.012 35.2288 118.604C35.9728 118.184 36.8248 117.974 37.7848 117.974C38.7208 117.974 39.5488 118.178 40.2688 118.586C40.9888 118.994 41.5408 119.558 41.9248 120.278C42.3208 120.986 42.5188 121.79 42.5188 122.69ZM40.8268 122.348C40.8268 121.724 40.6888 121.19 40.4128 120.746C40.1368 120.29 39.7588 119.948 39.2788 119.72C38.8108 119.48 38.2888 119.36 37.7128 119.36C36.8848 119.36 36.1768 119.624 35.5888 120.152C35.0128 120.68 34.6828 121.412 34.5988 122.348H40.8268ZM53.3857 115.454C54.7538 115.454 55.9358 115.712 56.9318 116.228C57.9398 116.732 58.7078 117.458 59.2358 118.406C59.7758 119.354 60.0458 120.47 60.0458 121.754C60.0458 123.038 59.7758 124.154 59.2358 125.102C58.7078 126.038 57.9398 126.758 56.9318 127.262C55.9358 127.754 54.7538 128 53.3857 128H49.4798V115.454H53.3857ZM53.3857 126.65C55.0058 126.65 56.2418 126.224 57.0938 125.372C57.9458 124.508 58.3718 123.302 58.3718 121.754C58.3718 120.194 57.9398 118.976 57.0758 118.1C56.2238 117.224 54.9938 116.786 53.3857 116.786H51.1178V126.65H53.3857ZM61.5943 123.032C61.5943 122.024 61.7983 121.142 62.2063 120.386C62.6143 119.618 63.1723 119.024 63.8803 118.604C64.6003 118.184 65.3983 117.974 66.2743 117.974C67.1383 117.974 67.8883 118.16 68.5243 118.532C69.1603 118.904 69.6343 119.372 69.9463 119.936V118.136H71.6023V128H69.9463V126.164C69.6223 126.74 69.1363 127.22 68.4883 127.604C67.8523 127.976 67.1083 128.162 66.2563 128.162C65.3803 128.162 64.5883 127.946 63.8803 127.514C63.1723 127.082 62.6143 126.476 62.2063 125.696C61.7983 124.916 61.5943 124.028 61.5943 123.032ZM69.9463 123.05C69.9463 122.306 69.7963 121.658 69.4963 121.106C69.1963 120.554 68.7883 120.134 68.2723 119.846C67.7683 119.546 67.2103 119.396 66.5983 119.396C65.9863 119.396 65.4283 119.54 64.9243 119.828C64.4203 120.116 64.0183 120.536 63.7183 121.088C63.4183 121.64 63.2683 122.288 63.2683 123.032C63.2683 123.788 63.4183 124.448 63.7183 125.012C64.0183 125.564 64.4203 125.99 64.9243 126.29C65.4283 126.578 65.9863 126.722 66.5983 126.722C67.2103 126.722 67.7683 126.578 68.2723 126.29C68.7883 125.99 69.1963 125.564 69.4963 125.012C69.7963 124.448 69.9463 123.794 69.9463 123.05ZM76.3684 119.486V125.3C76.3684 125.78 76.4704 126.122 76.6744 126.326C76.8784 126.518 77.2324 126.614 77.7364 126.614H78.9424V128H77.4664C76.5544 128 75.8704 127.79 75.4144 127.37C74.9584 126.95 74.7304 126.26 74.7304 125.3V119.486H73.4524V118.136H74.7304V115.652H76.3684V118.136H78.9424V119.486H76.3684ZM80.315 123.032C80.315 122.024 80.519 121.142 80.927 120.386C81.335 119.618 81.893 119.024 82.601 118.604C83.321 118.184 84.119 117.974 84.995 117.974C85.859 117.974 86.609 118.16 87.245 118.532C87.881 118.904 88.355 119.372 88.667 119.936V118.136H90.323V128H88.667V126.164C88.343 126.74 87.857 127.22 87.209 127.604C86.573 127.976 85.829 128.162 84.977 128.162C84.101 128.162 83.309 127.946 82.601 127.514C81.893 127.082 81.335 126.476 80.927 125.696C80.519 124.916 80.315 124.028 80.315 123.032ZM88.667 123.05C88.667 122.306 88.517 121.658 88.217 121.106C87.917 120.554 87.509 120.134 86.993 119.846C86.489 119.546 85.931 119.396 85.319 119.396C84.707 119.396 84.149 119.54 83.645 119.828C83.141 120.116 82.739 120.536 82.439 121.088C82.139 121.64 81.989 122.288 81.989 123.032C81.989 123.788 82.139 124.448 82.439 125.012C82.739 125.564 83.141 125.99 83.645 126.29C84.149 126.578 84.707 126.722 85.319 126.722C85.931 126.722 86.489 126.578 86.993 126.29C87.509 125.99 87.917 125.564 88.217 125.012C88.517 124.448 88.667 123.794 88.667 123.05Z" fill="#A0A0A0"/>
<path d="M13.4582 23.4121C13.4582 23.2825 13.5295 23.1635 13.6437 23.1024L12.5028 20.9705L13.6437 23.1024L45.8343 5.87668C45.9378 5.82129 46.0622 5.82129 46.1657 5.87668L78.3563 23.1024C78.4705 23.1635 78.5418 23.2826 78.5418 23.4121V61.4843C78.5418 61.6138 78.4705 61.7328 78.3563 61.7939L46.1657 79.0196L47.3255 81.187L46.1657 79.0196C46.0622 79.075 45.9378 79.075 45.8343 79.0196L13.6437 61.7939C13.5295 61.7328 13.4582 61.6138 13.4582 61.4843V23.4121Z" fill="#E3E3E3" stroke="#AEAEAE" stroke-width="4.91639"/>
<path d="M45.9229 29.8089L27.7317 32.1411C27.7074 32.1442 27.685 32.129 27.6803 32.105C27.1336 29.2799 30.2245 23.4844 45.9496 23.4844C58.5701 23.4844 63.5302 28.0729 64.4399 30.3789C64.4431 30.387 64.4437 30.3952 64.4422 30.4037L59.4118 58.2463C59.4113 58.2489 59.4107 58.2514 59.4098 58.2539C58.8203 59.8549 55.1896 63.0966 45.3643 63.2837C35.5397 63.4708 30.6623 57.8304 29.6811 54.9798C29.6794 54.9749 29.6787 54.9699 29.6787 54.9647V49.1503C29.6787 49.1048 29.7381 49.0848 29.765 49.1215C36.0418 57.6857 47.2471 56.9988 52.1202 55.6841C52.1406 55.6786 52.1536 55.6604 52.1536 55.6392V37.8983C52.1536 37.888 52.1502 37.8779 52.1439 37.8698L45.966 29.8268C45.9558 29.8136 45.9394 29.8067 45.9229 29.8089Z" fill="white"/>
<path d="M45.3359 31.7988L30.8301 33.7716C30.791 33.7769 30.7751 33.8246 30.8042 33.8512C35.1258 37.7939 45.075 38.3424 49.6146 38.1201C49.6512 38.1183 49.6691 38.0773 49.6484 38.0471L45.3809 31.8187C45.3708 31.8041 45.3535 31.7964 45.3359 31.7988Z" fill="#AEAEAE"/>
<path d="M31.5515 47.4761L30.7399 35.9971C30.737 35.9566 30.7834 35.9318 30.8156 35.9565C36.419 40.2762 45.6556 40.4534 49.6444 39.9949C49.6725 39.9916 49.6953 40.0123 49.6949 40.0406C49.6561 42.87 49.6029 49.4527 49.6947 53.6433C49.6952 53.6671 49.6768 53.687 49.6532 53.6902C36.9559 55.3579 32.297 50.253 31.5529 47.4847C31.5522 47.4818 31.5517 47.479 31.5515 47.4761Z" fill="#AEAEAE"/>
</svg>

<svg width="92" height="138" viewBox="0 0 92 138" fill="none" xmlns="http://www.w3.org/2000/svg"><path d="M.774 121.718c0-1.224.276-2.322.828-3.294a6.017 6.017 0 0 1 2.25-2.304c.96-.552 2.022-.828 3.186-.828 1.368 0 2.562.33 3.582.99 1.02.66 1.764 1.596 2.232 2.808H10.89c-.348-.756-.852-1.338-1.512-1.746-.648-.408-1.428-.612-2.34-.612-.876 0-1.662.204-2.358.612-.696.408-1.242.99-1.638 1.746-.396.744-.594 1.62-.594 2.628 0 .996.198 1.872.594 2.628.396.744.942 1.32 1.638 1.728.696.408 1.482.612 2.358.612.912 0 1.692-.198 2.34-.594.66-.408 1.164-.99 1.512-1.746h1.962c-.468 1.2-1.212 2.13-2.232 2.79-1.02.648-2.214.972-3.582.972-1.164 0-2.226-.27-3.186-.81a6.053 6.053 0 0 1-2.25-2.286c-.552-.972-.828-2.07-.828-3.294Zm18.818 6.444c-.924 0-1.764-.21-2.52-.63a4.58 4.58 0 0 1-1.764-1.782c-.42-.78-.63-1.68-.63-2.7 0-1.008.216-1.896.648-2.664a4.51 4.51 0 0 1 1.8-1.782c.756-.42 1.602-.63 2.538-.63.936 0 1.782.21 2.538.63.756.408 1.35.996 1.782 1.764.444.768.666 1.662.666 2.682s-.228 1.92-.684 2.7a4.634 4.634 0 0 1-1.818 1.782c-.768.42-1.62.63-2.556.63Zm0-1.44c.588 0 1.14-.138 1.656-.414.516-.276.93-.69 1.242-1.242.324-.552.486-1.224.486-2.016s-.156-1.464-.468-2.016c-.312-.552-.72-.96-1.224-1.224a3.356 3.356 0 0 0-1.638-.414c-.6 0-1.152.138-1.656.414-.492.264-.888.672-1.188 1.224-.3.552-.45 1.224-.45 2.016 0 .804.144 1.482.432 2.034.3.552.696.966 1.188 1.242a3.372 3.372 0 0 0 1.62.396Zm8.85-6.984a3.16 3.16 0 0 1 1.224-1.314c.54-.312 1.194-.468 1.962-.468v1.692h-.432c-1.836 0-2.754.996-2.754 2.988V128h-1.638v-9.864h1.638v1.602Zm14.077 2.952c0 .312-.018.642-.054.99H34.58c.06.972.39 1.734.99 2.286.612.54 1.35.81 2.214.81.708 0 1.296-.162 1.764-.486.48-.336.816-.78 1.008-1.332h1.764a4.284 4.284 0 0 1-1.584 2.322c-.792.588-1.776.882-2.952.882-.936 0-1.776-.21-2.52-.63a4.492 4.492 0 0 1-1.728-1.782c-.42-.78-.63-1.68-.63-2.7 0-1.02.204-1.914.612-2.682a4.254 4.254 0 0 1 1.71-1.764c.744-.42 1.596-.63 2.556-.63.936 0 1.764.204 2.484.612.72.408 1.272.972 1.656 1.692.396.708.594 1.512.594 2.412Zm-1.692-.342c0-.624-.138-1.158-.414-1.602a2.605 2.605 0 0 0-1.134-1.026c-.468-.24-.99-.36-1.566-.36-.828 0-1.536.264-2.124.792-.576.528-.906 1.26-.99 2.196h6.228Zm12.559-6.894c1.368 0 2.55.258 3.546.774 1.008.504 1.776 1.23 2.304 2.178.54.948.81 2.064.81 3.348 0 1.284-.27 2.4-.81 3.348-.528.936-1.296 1.656-2.304 2.16-.996.492-2.178.738-3.546.738H49.48v-12.546h3.906Zm0 11.196c1.62 0 2.856-.426 3.708-1.278.852-.864 1.278-2.07 1.278-3.618 0-1.56-.432-2.778-1.296-3.654-.852-.876-2.082-1.314-3.69-1.314h-2.268v9.864h2.268Zm8.208-3.618c0-1.008.204-1.89.612-2.646a4.446 4.446 0 0 1 1.674-1.782c.72-.42 1.518-.63 2.394-.63.864 0 1.614.186 2.25.558.636.372 1.11.84 1.422 1.404v-1.8h1.656V128h-1.656v-1.836c-.324.576-.81 1.056-1.458 1.44-.636.372-1.38.558-2.232.558-.876 0-1.668-.216-2.376-.648-.708-.432-1.266-1.038-1.674-1.818-.408-.78-.612-1.668-.612-2.664Zm8.352.018c0-.744-.15-1.392-.45-1.944a3.098 3.098 0 0 0-1.224-1.26 3.211 3.211 0 0 0-1.674-.45c-.612 0-1.17.144-1.674.432a3.134 3.134 0 0 0-1.206 1.26c-.3.552-.45 1.2-.45 1.944 0 .756.15 1.416.45 1.98.3.552.702.978 1.206 1.278a3.314 3.314 0 0 0 1.674.432c.612 0 1.17-.144 1.674-.432.516-.3.924-.726 1.224-1.278.3-.564.45-1.218.45-1.962Zm6.422-3.564v5.814c0 .48.102.822.306 1.026.204.192.558.288 1.062.288h1.206V128h-1.476c-.912 0-1.596-.21-2.052-.63-.456-.42-.684-1.11-.684-2.07v-5.814h-1.278v-1.35h1.278v-2.484h1.638v2.484h2.574v1.35h-2.574Zm3.947 3.546c0-1.008.204-1.89.612-2.646a4.446 4.446 0 0 1 1.674-1.782c.72-.42 1.518-.63 2.394-.63.864 0 1.614.186 2.25.558.636.372 1.11.84 1.422 1.404v-1.8h1.656V128h-1.656v-1.836c-.324.576-.81 1.056-1.458 1.44-.636.372-1.38.558-2.232.558-.876 0-1.668-.216-2.376-.648-.708-.432-1.266-1.038-1.674-1.818-.408-.78-.612-1.668-.612-2.664Zm8.352.018c0-.744-.15-1.392-.45-1.944a3.098 3.098 0 0 0-1.224-1.26 3.211 3.211 0 0 0-1.674-.45c-.612 0-1.17.144-1.674.432a3.134 3.134 0 0 0-1.206 1.26c-.3.552-.45 1.2-.45 1.944 0 .756.15 1.416.45 1.98.3.552.702.978 1.206 1.278a3.314 3.314 0 0 0 1.674.432c.612 0 1.17-.144 1.674-.432.516-.3.924-.726 1.224-1.278.3-.564.45-1.218.45-1.962Z" fill="#A0A0A0"/><path d="M13.458 23.412c0-.13.072-.248.186-.31l-1.141-2.131 1.14 2.131L45.835 5.877a.351.351 0 0 1 .332 0l32.19 17.225c.115.061.186.18.186.31v38.072c0 .13-.072.249-.186.31L46.166 79.02l1.16 2.167-1.16-2.167a.351.351 0 0 1-.332 0l-32.19-17.226a.351.351 0 0 1-.186-.31V23.412Z" fill="#E3E3E3" stroke="#AEAEAE" stroke-width="4.916"/><path d="M45.923 29.809 27.732 32.14a.046.046 0 0 1-.052-.036c-.546-2.825 2.544-8.62 18.27-8.62 12.62 0 17.58 4.588 18.49 6.894a.045.045 0 0 1 .002.025l-5.03 27.842a.05.05 0 0 1-.002.008c-.59 1.6-4.22 4.843-14.046 5.03-9.824.187-14.702-5.454-15.683-8.304a.045.045 0 0 1-.002-.015V49.15c0-.045.06-.065.086-.029C36.042 57.686 47.247 57 52.12 55.684a.045.045 0 0 0 .034-.045V37.9c0-.011-.004-.021-.01-.03l-6.178-8.042a.047.047 0 0 0-.043-.018Z" fill="#fff"/><path d="M45.336 31.799 30.83 33.772c-.039.005-.055.053-.026.08 4.322 3.942 14.271 4.49 18.81 4.268.037-.002.055-.043.034-.073l-4.267-6.228a.047.047 0 0 0-.045-.02Z" fill="#AEAEAE"/><path d="m31.552 47.476-.812-11.479a.047.047 0 0 1 .076-.04c5.603 4.32 14.84 4.496 18.828 4.038a.044.044 0 0 1 .05.046c-.038 2.829-.091 9.412 0 13.602a.047.047 0 0 1-.04.047c-12.698 1.668-17.357-3.437-18.101-6.205a.051.051 0 0 1-.002-.009Z" fill="#AEAEAE"/></svg>
